img/service-pay-proccess__02.svg

<svg width="36" height="36" viewBox="0 0 36 36" fill="none" xmlns="http://www.w3.org/2000/svg">
<g clip-path="url(#clip0)">
<path d="M35.9999 16.4924L35.9997 4.86056C35.9998 2.18039 33.8193 0 31.1392 0H19.5075C19.3086 0 19.1179 0.0790313 18.9773 0.219656L16.7036 2.49335C16.3148 2.46101 15.9225 2.43485 15.5272 2.41573C10.5248 2.17343 6.25605 3.04601 4.65237 4.63859C4.00992 5.27667 3.89609 5.9182 3.91359 6.34387C3.97716 7.87964 5.8147 9.261 8.99838 10.1985L1.41862 17.7783C0.503789 18.6931 0 19.9138 0 21.2153C0 22.5168 0.503859 23.7374 1.41862 24.6521L11.2665 34.5H10.5C10.0858 34.5 9.74995 34.8358 9.74995 35.25C9.74995 35.6642 10.0858 36.0001 10.5 36.0001H25.4998C25.914 36.0001 26.2498 35.6643 26.2498 35.25C26.2498 34.8358 25.914 34.5 25.4998 34.5H18.3029L35.7801 17.0228C35.9209 16.882 35.9999 16.6913 35.9999 16.4924ZM5.41237 6.28186C5.40963 6.21443 5.40113 6.00905 5.70945 5.70284C6.7436 4.67578 10.1769 3.6843 15.2898 3.90712L10.2204 8.97652C6.74255 8.10155 5.43755 6.88999 5.41237 6.28186ZM17.161 33.5206C16.5295 34.1521 15.6855 34.5 14.7847 34.5C13.8838 34.5 13.0399 34.1522 12.4085 33.5206L2.47922 23.5913C1.84767 22.9599 1.49984 22.116 1.49984 21.2152C1.49984 20.3143 1.84767 19.4704 2.47922 18.8389L17.2653 4.05295C19.4355 4.27992 21.4391 4.71649 23.0346 5.31998C24.0927 5.72027 24.8063 6.13364 25.254 6.50559C24.7135 7.04848 24.3787 7.79646 24.3787 8.62137C24.3787 8.85403 24.4062 9.08037 24.4567 9.29791C24.46 9.31634 24.4645 9.33462 24.4694 9.35283C24.4713 9.36063 24.473 9.36851 24.4751 9.37631C24.4752 9.37695 24.4754 9.37758 24.4757 9.37814C24.8119 10.6671 25.9859 11.6213 27.3787 11.6213C29.0328 11.6213 30.3786 10.2755 30.3786 8.6213C30.3786 6.96705 29.0329 5.6212 27.3787 5.6212C27.1126 5.6212 26.8547 5.65643 26.609 5.72175C25.9737 5.05055 24.9509 4.44108 23.5652 3.91697C22.1529 3.38273 20.4524 2.97155 18.6098 2.70844L19.8181 1.50005H31.1391C32.9921 1.50005 34.4997 3.00762 34.4997 4.86063L34.4998 16.1817L17.161 33.5206ZM27.3733 7.34491C27.3702 7.27038 27.3625 7.19634 27.3514 7.12259C27.3606 7.12245 27.3695 7.12118 27.3787 7.12118C28.2057 7.12118 28.8785 7.79414 28.8785 8.62123C28.8785 9.44824 28.2057 10.1211 27.3787 10.1211C26.8629 10.1211 26.4072 9.85936 26.1371 9.46174C27.183 8.71868 27.397 7.91993 27.3733 7.34491Z" fill="white"/>
<path d="M32.1635 6.33726C31.7683 6.46108 31.5482 6.8819 31.672 7.27713C31.8084 7.7125 31.8776 8.16468 31.8776 8.62122C31.8776 11.1025 29.859 13.121 27.3778 13.121C24.8965 13.121 22.878 11.1025 22.878 8.62122C22.878 8.20701 22.5422 7.8712 22.128 7.8712C21.7137 7.8712 21.3779 8.20694 21.3779 8.62122C21.3779 11.9295 24.0694 14.621 27.3778 14.621C30.686 14.621 33.3775 11.9295 33.3775 8.62122C33.3775 8.01245 33.2853 7.40931 33.1033 6.82874C32.9796 6.43345 32.5587 6.21337 32.1635 6.33726Z" fill="white"/>
<path d="M31.1647 5.73474C31.3515 5.73474 31.5387 5.66527 31.6843 5.52556C31.9829 5.23862 31.9924 4.76387 31.7055 4.46511C31.5824 4.33693 31.453 4.21353 31.3207 4.09843C31.0082 3.82639 30.5345 3.85923 30.2625 4.17163C29.9905 4.48402 30.0233 4.95772 30.3357 5.22976C30.4345 5.31575 30.5314 5.40821 30.6238 5.50426C30.771 5.65761 30.9676 5.73474 31.1647 5.73474Z" fill="white"/>
<path d="M21.8835 23.0609C22.0218 22.8669 22.1456 22.6675 22.2508 22.4654C22.9225 21.1753 22.7987 19.5925 21.9353 18.4332C21.1538 17.3838 19.9445 16.8997 18.7005 17.1383C17.8099 17.3091 16.9608 17.7909 16.1396 18.2569C15.951 18.3639 15.7729 18.465 15.5937 18.5629C14.4957 19.162 13.4474 19.2043 12.7894 18.676C12.2463 18.2399 12.0656 17.4844 12.3058 16.6549C12.3751 16.4155 12.4982 16.1819 12.6604 15.959L13.9009 17.1997C14.0474 17.3461 14.2393 17.4193 14.4313 17.4193C14.6233 17.4193 14.8151 17.3461 14.9615 17.1997C15.2544 16.9069 15.2544 16.432 14.9615 16.139L13.7652 14.9425C14.3052 14.5854 14.9197 14.3135 15.4882 14.1739C15.8905 14.075 16.1364 13.6688 16.0374 13.2664C15.9385 12.8642 15.5323 12.6182 15.13 12.7172C14.3299 12.9139 13.4466 13.3062 12.6828 13.8599L12.1097 13.2868C11.8169 12.994 11.3421 12.9939 11.0491 13.2868C10.7561 13.5796 10.7561 14.0544 11.049 14.3474L11.588 14.8865C11.2614 15.293 11.0075 15.7451 10.8648 16.2376C10.4567 17.6473 10.8342 19.0298 11.8502 19.8456C12.9964 20.7659 14.6645 20.7786 16.3121 19.8796C16.3697 19.8481 16.4273 19.8156 16.4851 19.7836L19.8015 23.1001C19.0804 23.6669 18.2619 23.9442 17.753 23.7831C17.3581 23.6579 16.9366 23.8767 16.8115 24.2717C16.6864 24.6666 16.9052 25.0881 17.3 25.2131C17.5529 25.2931 17.8151 25.3305 18.0819 25.3305C19.0316 25.3304 20.0371 24.8577 20.8635 24.162L21.6555 24.9541C21.8019 25.1005 21.9939 25.1737 22.1857 25.1737C22.3777 25.1737 22.5696 25.1005 22.716 24.9541C23.0089 24.6612 23.0089 24.1864 22.7161 23.8934L21.8835 23.0609ZM20.9204 21.7725C20.8836 21.8432 20.8439 21.9121 20.8028 21.9801L17.8543 19.0315C18.2453 18.8367 18.6281 18.6796 18.983 18.6115C19.6588 18.482 20.2962 18.7435 20.7324 19.3291C21.2545 20.0302 21.3282 20.9893 20.9204 21.7725Z" fill="white"/>
<path d="M9.59682 25.5753C9.30403 25.2824 8.82914 25.2821 8.53615 25.575C8.24323 25.8678 8.24316 26.3427 8.53594 26.6357L8.84278 26.9427C8.98925 27.0892 9.18134 27.1625 9.37329 27.1625C9.56518 27.1625 9.75706 27.0894 9.90345 26.943C10.1964 26.6502 10.1966 26.1753 9.90373 25.8823L9.59682 25.5753Z" fill="white"/>
<path d="M16.3776 29.1701L14.7866 30.7612L11.6046 27.579C11.3117 27.2862 10.8368 27.2862 10.5439 27.579C10.251 27.8718 10.251 28.3467 10.5438 28.6397L13.726 31.8218C14.0184 32.1142 14.4025 32.2604 14.7866 32.2604C15.1707 32.2604 15.5549 32.1142 15.8474 31.8218L17.4384 30.2308C17.7313 29.9379 17.7313 29.463 17.4384 29.1701C17.1454 28.8771 16.6705 28.8771 16.3776 29.1701Z" fill="white"/>
</g>
<defs>
<clipPath id="clip0">
<rect width="36" height="36" fill="white"/>
</clipPath>
</defs>
</svg>

<svg width="36" height="36" fill="none" xmlns="http://www.w3.org/2000/svg"><g clip-path="url(#clip0)" fill="#fff"><path d="M36 16.492V4.861A4.865 4.865 0 0031.14 0H19.506a.75.75 0 00-.53.22l-2.273 2.273a34.021 34.021 0 00-1.177-.077c-5.002-.243-9.27.63-10.875 2.223-.642.638-.756 1.28-.738 1.705.063 1.536 1.9 2.917 5.084 3.854l-7.58 7.58A4.826 4.826 0 000 21.215c0 1.302.504 2.522 1.419 3.437l9.848 9.848H10.5a.75.75 0 000 1.5h15a.75.75 0 000-1.5h-7.197L35.78 17.023a.75.75 0 00.22-.53zM5.412 6.282c-.002-.068-.01-.273.297-.58 1.035-1.026 4.468-2.018 9.58-1.795l-5.069 5.07C6.743 8.102 5.438 6.89 5.412 6.282zM17.161 33.52a3.336 3.336 0 01-2.376.979 3.337 3.337 0 01-2.377-.98L2.48 23.592a3.336 3.336 0 01-.98-2.376c0-.9.349-1.745.98-2.376L17.265 4.053c2.17.227 4.174.663 5.77 1.267 1.058.4 1.771.814 2.219 1.186a2.99 2.99 0 00-.785 2.847l.006.023v.002a3.005 3.005 0 002.904 2.243c1.654 0 3-1.346 3-3a3.003 3.003 0 00-3.77-2.9c-.635-.67-1.658-1.28-3.044-1.804-1.412-.534-3.113-.945-4.955-1.209L19.818 1.5H31.14a3.364 3.364 0 013.36 3.36v11.322L17.162 33.52zM27.373 7.345a2.071 2.071 0 00-.022-.222l.028-.002c.827 0 1.5.673 1.5 1.5s-.673 1.5-1.5 1.5a1.5 1.5 0 01-1.242-.66c1.046-.742 1.26-1.541 1.236-2.116z"/><path d="M32.163 6.337a.75.75 0 00-.491.94 4.505 4.505 0 01-4.294 5.844 4.505 4.505 0 01-4.5-4.5.75.75 0 00-1.5 0c0 3.309 2.691 6 6 6 3.308 0 6-2.691 6-6a5.98 5.98 0 00-.275-1.792.75.75 0 00-.94-.492zm-.998-.602a.748.748 0 00.54-1.27 5.957 5.957 0 00-.384-.367.75.75 0 00-.985 1.132c.099.086.195.178.288.274.147.154.344.23.54.23zM21.884 23.06c.138-.193.262-.392.367-.595a3.828 3.828 0 00-.316-4.032c-.781-1.05-1.99-1.533-3.234-1.295-.891.171-1.74.653-2.561 1.119-.189.107-.367.208-.546.306-1.098.599-2.147.641-2.805.113-.543-.436-.723-1.192-.483-2.021.07-.24.192-.473.354-.696l1.24 1.24a.748.748 0 001.061 0 .75.75 0 000-1.06l-1.196-1.196a5.68 5.68 0 011.723-.77.75.75 0 10-.358-1.456c-.8.197-1.683.59-2.447 1.143l-.573-.573a.75.75 0 00-1.061 1.06l.539.54a3.9 3.9 0 00-.723 1.35c-.408 1.41-.03 2.793.985 3.609 1.146.92 2.815.933 4.462.034l.173-.096 3.317 3.316c-.722.567-1.54.844-2.049.683a.75.75 0 10-.453 1.43c.253.08.515.117.782.117.95 0 1.955-.472 2.781-1.168l.793.792a.748.748 0 001.06 0 .75.75 0 000-1.06l-.832-.833zm-.964-1.287c-.036.07-.076.14-.117.207l-2.949-2.948c.391-.195.774-.352 1.129-.42.676-.13 1.313.132 1.75.717a2.32 2.32 0 01.187 2.444zM9.597 25.575a.75.75 0 10-1.061 1.06l.307.308a.748.748 0 001.06 0 .75.75 0 000-1.06l-.306-.308zm6.781 3.595l-1.591 1.591-3.182-3.182a.75.75 0 00-1.061 1.06l3.182 3.183c.292.292.676.438 1.06.438.385 0 .769-.146 1.061-.438l1.591-1.591a.75.75 0 10-1.06-1.06z"/></g><defs><clipPath id="clip0"><path fill="#fff" d="M0 0h36v36H0z"/></clipPath></defs></svg>
